dist/img/svg/ic_parking.svg

<svg width="22" height="21" viewBox="0 0 22 21"  xmlns="http://www.w3.org/2000/svg">
<g clip-path="url(#clip0)">
<path d="M19.1534 0H2.65334C1.41262 0 0.40332 1.0093 0.40332 2.25002V18.75C0.40332 19.9908 1.41262 21.0001 2.65334 21.0001H19.1534C20.3941 21.0001 21.4034 19.9908 21.4034 18.75V2.25002C21.4033 1.0093 20.3941 0 19.1534 0V0ZM19.9033 18.75C19.9033 19.1638 19.5672 19.5 19.1534 19.5H2.65334C2.23954 19.5 1.90335 19.1638 1.90335 18.75V2.25002C1.90335 1.83622 2.23954 1.50003 2.65334 1.50003H19.1534C19.5672 1.50003 19.9033 1.83622 19.9033 2.25002V18.75Z" />
<path d="M11.6533 4.5H7.15331C6.73876 4.5 6.40332 4.83544 6.40332 5.24999V16.5H7.9033V12H11.6533C13.7209 12 15.4033 10.3176 15.4033 8.25C15.4033 6.18237 13.7209 4.5 11.6533 4.5ZM11.6533 10.5H7.9033V6.00003H11.6533C12.894 6.00003 13.9033 7.00933 13.9033 8.25005C13.9033 9.49077 12.8941 10.5 11.6533 10.5Z" />
</g>
<defs>
<clipPath id="clip0">
<rect width="21" height="21"  transform="translate(0.40332)"/>
</clipPath>
</defs>
</svg>

<svg width="22" height="21" viewBox="0 0 22 21" xmlns="http://www.w3.org/2000/svg"><g clip-path="url(#clip0)"><path d="M19.153 0h-16.5C1.413 0 .403 1.01.403 2.25v16.5c0 1.24 1.01 2.25 2.25 2.25h16.5c1.241 0 2.25-1.01 2.25-2.25V2.25c0-1.24-1.009-2.25-2.25-2.25zm.75 18.75a.75.75 0 01-.75.75h-16.5a.75.75 0 01-.75-.75V2.25a.75.75 0 01.75-.75h16.5a.75.75 0 01.75.75v16.5z"/><path d="M11.653 4.5h-4.5a.75.75 0 00-.75.75V16.5h1.5V12h3.75a3.754 3.754 0 003.75-3.75 3.754 3.754 0 00-3.75-3.75zm0 6h-3.75V6h3.75c1.241 0 2.25 1.01 2.25 2.25s-1.009 2.25-2.25 2.25z"/></g><defs><clipPath id="clip0"><path transform="translate(.403)" d="M0 0h21v21H0z"/></clipPath></defs></svg>
